deepin/places/folder-recent.svg

<?xml version="1.0" encoding="UTF-8" standalone="no"?>
<!-- Generator: Adobe Illustrator 18.0.0, SVG Export Plug-In . SVG Version: 6.00 Build 0)  -->

<svg
   xmlns:dc="http://purl.org/dc/elements/1.1/"
   xmlns:cc="http://creativecommons.org/ns#"
   xmlns:rdf="http://www.w3.org/1999/02/22-rdf-syntax-ns#"
   xmlns:svg="http://www.w3.org/2000/svg"
   xmlns="http://www.w3.org/2000/svg"
   xmlns:sodipodi="http://sodipodi.sourceforge.net/DTD/sodipodi-0.dtd"
   xmlns:inkscape="http://www.inkscape.org/namespaces/inkscape"
   version="1.1"
   id="图层_1"
   x="0px"
   y="0px"
   viewBox="0 0 16 16"
   style="enable-background:new 0 0 16 16;"
   xml:space="preserve"
   inkscape:version="0.91 r13725"
   sodipodi:docname="folder-recent.svg"><metadata
     id="metadata13"><rdf:RDF><cc:Work
         rdf:about=""><dc:format>image/svg+xml</dc:format><dc:type
           rdf:resource="http://purl.org/dc/dcmitype/StillImage" /><dc:title /></cc:Work></rdf:RDF></metadata><defs
     id="defs11" /><sodipodi:namedview
     pagecolor="#ffffff"
     bordercolor="#666666"
     borderopacity="1"
     objecttolerance="10"
     gridtolerance="10"
     guidetolerance="10"
     inkscape:pageopacity="0"
     inkscape:pageshadow="2"
     inkscape:window-width="733"
     inkscape:window-height="480"
     id="namedview9"
     showgrid="false"
     inkscape:zoom="14.75"
     inkscape:cx="8"
     inkscape:cy="8"
     inkscape:window-x="0"
     inkscape:window-y="0"
     inkscape:window-maximized="0"
     inkscape:current-layer="g3" /><g
     id="g3"><path
       style="fill:#9FA0A0;"
       d="M 8.0273438 1.2148438 C 6.1363437 1.2148438 4.7993438 1.5214375 3.1523438 3.1484375 L 3.0117188 3.2871094 L 1.9375 2.2167969 L 1.2773438 5.8300781 L 4.8925781 5.1699219 L 3.8046875 4.0820312 L 3.9492188 3.9414062 C 4.9182188 2.9974063 6.5962969 2.3378906 8.0292969 2.3378906 C 11.144297 2.3378906 13.679688 4.8751406 13.679688 7.9941406 C 13.679688 11.112141 11.141437 13.650391 8.0234375 13.650391 C 5.0004375 13.650391 2.5159531 11.254672 2.3769531 8.2636719 L 1.2617188 8.4746094 C 1.5067188 12.021609 4.4434844 14.775391 8.0214844 14.775391 C 11.760484 14.775391 14.802734 11.733141 14.802734 7.9941406 C 14.802734 4.2551406 11.763344 1.2148438 8.0273438 1.2148438 z M 7 4 L 7 9 L 12 9 L 12 8 L 8 8 L 8 4 L 7 4 z "
       id="polygon5" /></g></svg>

<?xml version="1.0" encoding="UTF-8" standalone="no"?>
<!-- Generator: Adobe Illustrator 18.0.0, SVG Export Plug-In . SVG Version: 6.00 Build 0)  -->

<svg
   xmlns:dc="http://purl.org/dc/elements/1.1/"
   xmlns:cc="http://creativecommons.org/ns#"
   xmlns:rdf="http://www.w3.org/1999/02/22-rdf-syntax-ns#"
   xmlns:svg="http://www.w3.org/2000/svg"
   xmlns="http://www.w3.org/2000/svg"
   xmlns:sodipodi="http://sodipodi.sourceforge.net/DTD/sodipodi-0.dtd"
   xmlns:inkscape="http://www.inkscape.org/namespaces/inkscape"
   version="1.1"
   id="图层_1"
   x="0px"
   y="0px"
   viewBox="0 0 16 16"
   style="enable-background:new 0 0 16 16;"
   xml:space="preserve"
   inkscape:version="0.91 r13725"
   sodipodi:docname="folder-recent.svg"><metadata
     id="metadata13"><rdf:RDF><cc:Work
         rdf:about=""><dc:format>image/svg+xml</dc:format><dc:type
           rdf:resource="http://purl.org/dc/dcmitype/StillImage" /><dc:title></dc:title></cc:Work></rdf:RDF></metadata><defs
     id="defs11" /><sodipodi:namedview
     pagecolor="#ffffff"
     bordercolor="#666666"
     borderopacity="1"
     objecttolerance="10"
     gridtolerance="10"
     guidetolerance="10"
     inkscape:pageopacity="0"
     inkscape:pageshadow="2"
     inkscape:window-width="640"
     inkscape:window-height="480"
     id="namedview9"
     showgrid="false"
     inkscape:zoom="14.75"
     inkscape:cx="8"
     inkscape:cy="8"
     inkscape:window-x="0"
     inkscape:window-y="0"
     inkscape:window-maximized="0"
     inkscape:current-layer="图层_1" /><g
     id="g3"><polygon
       style="fill:#9FA0A0;"
       points="7,4 7,9 12,9 12,8 8,8 8,4  "
       id="polygon5" /><path
       style="fill:#9FA0A0;"
       d="M8.028,1.214c-1.891,0-3.229,0.308-4.876,1.935L3.011,3.288L1.938,2.216l-0.66,3.614l3.614-0.66   L3.805,4.082L3.95,3.941c0.969-0.944,2.646-1.603,4.079-1.603c3.115,0,5.65,2.538,5.65,5.657c0,3.118-2.537,5.655-5.655,5.655   c-3.023,0-5.508-2.395-5.647-5.386L1.262,8.474c0.245,3.547,3.182,6.301,6.76,6.301c3.739,0,6.78-3.042,6.78-6.781   S11.764,1.214,8.028,1.214z"
       id="path7" /></g></svg>
